public/img/prop-icon1.svg

<svg width="25" height="30" viewBox="0 0 25 30" fill="none" xmlns="http://www.w3.org/2000/svg">
<path d="M0 29.7375V9.95243L12.5 0.0598755L25 9.95243V29.7375H0ZM3.125 26.44H21.875V11.6012L12.5 4.18177L3.125 11.6012V26.44ZM4.6875 24.7913H6.25V22.3181H18.75V24.7913H20.3125V18.1962C20.3125 17.2894 20.0063 16.5128 19.3938 15.8665C18.7813 15.2202 18.0458 14.8976 17.1875 14.8987H11.7188V20.6694H6.25V13.2499H4.6875V24.7913ZM8.98438 19.845C9.53125 19.845 9.99375 19.6455 10.3719 19.2465C10.75 18.8475 10.9385 18.36 10.9375 17.784C10.9375 17.207 10.7484 16.7189 10.3703 16.3199C9.99219 15.9209 9.53021 15.722 8.98438 15.7231C8.4375 15.7231 7.975 15.9226 7.59688 16.3216C7.21875 16.7206 7.03021 17.2081 7.03125 17.784C7.03125 18.3611 7.22031 18.8491 7.59844 19.2481C7.97656 19.6471 8.43854 19.8461 8.98438 19.845Z" fill="black"/>
</svg>

<svg width="25" height="30" fill="none" xmlns="http://www.w3.org/2000/svg"><path d="M0 29.738V9.951L12.5.06 25 9.952v19.785H0zm3.125-3.298h18.75V11.601L12.5 4.181l-9.375 7.42V26.44zm1.563-1.649H6.25v-2.473h12.5v2.473h1.563v-6.595c0-.907-.307-1.683-.92-2.33-.612-.646-1.347-.968-2.206-.967H11.72v5.77H6.25v-7.42H4.687v11.542zm4.296-4.946c.547 0 1.01-.2 1.388-.598.378-.4.566-.887.566-1.463 0-.577-.19-1.065-.568-1.464a1.83 1.83 0 00-1.386-.597c-.546 0-1.009.2-1.387.599-.378.399-.567.886-.566 1.462 0 .577.19 1.065.567 1.464.379.4.84.598 1.386.597z" fill="#000"/></svg>
